icon-themes/tango_svg/framework/res/info_26.svg

<svg height="24" width="24" xmlns="http://www.w3.org/2000/svg" xmlns:xlink="http://www.w3.org/1999/xlink"><linearGradient id="a" gradientUnits="userSpaceOnUse" x1="0" x2="24" y1="12" y2="12"><stop offset="0" stop-color="#729fcf"/><stop offset="1" stop-color="#3465a4"/></linearGradient><linearGradient id="b" gradientTransform="matrix(0 .83333333 -.83333333 0 22 1.999983)" gradientUnits="userSpaceOnUse" x1="0" x2="24" y1="12" y2="12"><stop offset="0" stop-color="#fff"/><stop offset="1" stop-color="#fff" stop-opacity="0"/></linearGradient><path d="m24 12a12 12 0 1 1 -24 0 12 12 0 1 1 24 0z" fill="url(#a)" transform="matrix(0 .91666727125 -.91666727125 0 23.0000144347 .99999041019)"/><path d="m13.18688 1037.1945c-.000004.3615-.137369.6796-.412094.9543-.274732.2747-.592839.4121-.954322.4121-.390407 0-.715743-.1301-.976011-.3904-.260271-.2747-.390406-.6001-.390404-.976-.000002-.4049.122903-.7374.368715-.9977.260267-.2747.592834-.4121.9977-.4121.361483 0 .67959.1374.954322.4121.274725.2747.41209.6073.412094.9977m.681026 13.9159h-4.3507152v-.8242c.6362142-.029.6982762-.1216.9151682-.2951.231349-.188.347025-.4772.347027-.8676v-5.2705c-.000002-.506-.04338-.8458-.130135-1.0194-.0723-.1879-.238582-.2819-.49885-.2819-.2313522 0-.2070241-.029-.6408062.1012v-.8459l3.2770122-1.1485v8.5889c-.000005.4049.115671.694.347026.8676.231346.1735.08359.1423.734273.1712z" fill="#fff" transform="matrix(.91938913138 0 0 .91395346863 1.24999800625 -941.66598132046)"/><g transform="matrix(1.00000002621 0 0 1.00000002621 -.00000065151 -.00000191601)"><path d="m12 1c-6.0751363 0-11 4.9248637-11 11 0 6.075136 4.9248637 11 11 11 6.075136 0 11-4.924864 11-11 0-6.0751363-4.924864-11-11-11zm0 1c5.522848 0 10 4.477143 10 10s-4.477152 10-10 10c-5.5228476 0-10-4.477143-10-10s4.4771524-10 10-10z" opacity=".4"/><path d="m12 2c-5.5228475 0-10 4.4771525-10 10 0 5.522848 4.4771525 10 10 10 5.522848 0 10-4.477152 10-10 0-5.5228475-4.477152-10-10-10zm0 1c4.970563 0 9 4.0294372 9 9 0 4.970563-4.029437 9-9 9-4.9705627 0-9-4.029437-9-9 0-4.9705628 4.0294373-9 9-9z" fill="url(#b)" opacity=".3"/></g></svg>

<?xml version="1.0" encoding="UTF-8" standalone="no"?>
<!-- Created with Inkscape (http://www.inkscape.org/) -->

<svg
   xmlns:dc="http://purl.org/dc/elements/1.1/"
   xmlns:cc="http://creativecommons.org/ns#"
   xmlns:rdf="http://www.w3.org/1999/02/22-rdf-syntax-ns#"
   xmlns:svg="http://www.w3.org/2000/svg"
   xmlns="http://www.w3.org/2000/svg"
   xmlns:xlink="http://www.w3.org/1999/xlink"
   xmlns:sodipodi="http://sodipodi.sourceforge.net/DTD/sodipodi-0.dtd"
   xmlns:inkscape="http://www.inkscape.org/namespaces/inkscape"
   width="24"
   height="24"
   id="svg2"
   version="1.1"
   inkscape:version="0.48.3.1 r9886"
   sodipodi:docname="info_26.svg"
   inkscape:export-filename="/home/alexander/libo/icon-themes/tango_testing/framework/res/info_26.png"
   inkscape:export-xdpi="90"
   inkscape:export-ydpi="90">
  <defs
     id="defs4">
    <linearGradient
       inkscape:collect="always"
       id="linearGradient3807">
      <stop
         style="stop-color:#ffffff;stop-opacity:1;"
         offset="0"
         id="stop3809" />
      <stop
         style="stop-color:#ffffff;stop-opacity:0;"
         offset="1"
         id="stop3811" />
    </linearGradient>
    <linearGradient
       inkscape:collect="always"
       id="linearGradient4140">
      <stop
         style="stop-color:#ffffff;stop-opacity:1;"
         offset="0"
         id="stop4142" />
      <stop
         style="stop-color:#ffffff;stop-opacity:0;"
         offset="1"
         id="stop4144" />
    </linearGradient>
    <linearGradient
       id="linearGradient4114">
      <stop
         style="stop-color:#729fcf;stop-opacity:1;"
         offset="0"
         id="stop4116" />
      <stop
         style="stop-color:#3465a4;stop-opacity:1;"
         offset="1"
         id="stop4118" />
    </linearGradient>
    <linearGradient
       inkscape:collect="always"
       xlink:href="#linearGradient4114"
       id="linearGradient4120"
       x1="0"
       y1="12"
       x2="24"
       y2="12"
       gradientUnits="userSpaceOnUse" />
    <linearGradient
       inkscape:collect="always"
       xlink:href="#linearGradient4140"
       id="linearGradient4146"
       x1="1"
       y1="12"
       x2="23"
       y2="12"
       gradientUnits="userSpaceOnUse"
       gradientTransform="matrix(0,1,-1,0,24,1028.3622)" />
    <linearGradient
       inkscape:collect="always"
       xlink:href="#linearGradient4114"
       id="linearGradient3017"
       gradientUnits="userSpaceOnUse"
       x1="0"
       y1="12"
       x2="24"
       y2="12" />
    <linearGradient
       inkscape:collect="always"
       xlink:href="#linearGradient4140"
       id="linearGradient3019"
       gradientUnits="userSpaceOnUse"
       gradientTransform="matrix(0,0.95454544,-0.95454544,0,-7.4999999,1025.9077)"
       x1="1"
       y1="12"
       x2="23"
       y2="12" />
    <linearGradient
       inkscape:collect="always"
       xlink:href="#linearGradient4114"
       id="linearGradient3025"
       gradientUnits="userSpaceOnUse"
       x1="0"
       y1="12"
       x2="24"
       y2="12" />
    <linearGradient
       inkscape:collect="always"
       xlink:href="#linearGradient4114"
       id="linearGradient3027"
       gradientUnits="userSpaceOnUse"
       x1="0"
       y1="12"
       x2="24"
       y2="12"
       gradientTransform="matrix(0,0.66666667,-0.66666667,0,16,3.4278739e-6)" />
    <linearGradient
       inkscape:collect="always"
       xlink:href="#linearGradient4114"
       id="linearGradient3032"
       gradientUnits="userSpaceOnUse"
       x1="0"
       y1="12"
       x2="24"
       y2="12"
       gradientTransform="matrix(0,0.58333362,-0.58333362,0,15.000003,1.0000034)" />
    <linearGradient
       inkscape:collect="always"
       xlink:href="#linearGradient4114"
       id="linearGradient3036"
       gradientUnits="userSpaceOnUse"
       x1="0"
       y1="12"
       x2="24"
       y2="12" />
    <linearGradient
       inkscape:collect="always"
       xlink:href="#linearGradient3807"
       id="linearGradient3813"
       x1="1"
       y1="8"
       x2="15"
       y2="8"
       gradientUnits="userSpaceOnUse"
       gradientTransform="matrix(0,1.5,-1.5,0,24,1028.3622)" />
    <linearGradient
       inkscape:collect="always"
       xlink:href="#linearGradient4114"
       id="linearGradient3016"
       gradientUnits="userSpaceOnUse"
       x1="0"
       y1="12"
       x2="24"
       y2="12" />
    <linearGradient
       inkscape:collect="always"
       xlink:href="#linearGradient3807"
       id="linearGradient3018"
       gradientUnits="userSpaceOnUse"
       gradientTransform="matrix(0,1.5,-1.5,0,51.272709,1025.0895)"
       x1="1"
       y1="8"
       x2="15"
       y2="8" />
    <linearGradient
       inkscape:collect="always"
       xlink:href="#linearGradient4114"
       id="linearGradient3024"
       gradientUnits="userSpaceOnUse"
       x1="0"
       y1="12"
       x2="24"
       y2="12" />
    <linearGradient
       inkscape:collect="always"
       xlink:href="#linearGradient4114"
       id="linearGradient3030"
       gradientUnits="userSpaceOnUse"
       x1="0"
       y1="12"
       x2="24"
       y2="12" />
    <linearGradient
       inkscape:collect="always"
       xlink:href="#linearGradient4114"
       id="linearGradient3033"
       gradientUnits="userSpaceOnUse"
       x1="0"
       y1="12"
       x2="24"
       y2="12"
       gradientTransform="matrix(0,0.91666727,-0.91666727,0,23.000015,0.99999041)" />
    <linearGradient
       inkscape:collect="always"
       xlink:href="#linearGradient4114"
       id="linearGradient3038"
       gradientUnits="userSpaceOnUse"
       x1="0"
       y1="12"
       x2="24"
       y2="12"
       gradientTransform="matrix(0,0.83333333,-0.83333333,0,22,1.9999827)" />
    <linearGradient
       inkscape:collect="always"
       xlink:href="#linearGradient4114"
       id="linearGradient3042"
       gradientUnits="userSpaceOnUse"
       x1="0"
       y1="12"
       x2="24"
       y2="12" />
    <linearGradient
       inkscape:collect="always"
       xlink:href="#linearGradient4140"
       id="linearGradient3814"
       gradientUnits="userSpaceOnUse"
       gradientTransform="matrix(0,0.83333333,-0.83333333,0,22,1.9999827)"
       x1="0"
       y1="12"
       x2="24"
       y2="12" />
  </defs>
  <sodipodi:namedview
     id="base"
     pagecolor="#ffffff"
     bordercolor="#666666"
     borderopacity="1.0"
     inkscape:pageopacity="0.0"
     inkscape:pageshadow="2"
     inkscape:zoom="1"
     inkscape:cx="14.998938"
     inkscape:cy="5.2917166"
     inkscape:document-units="px"
     inkscape:current-layer="text4148"
     showgrid="false"
     showborder="true"
     inkscape:showpageshadow="false"
     inkscape:window-width="769"
     inkscape:window-height="436"
     inkscape:window-x="161"
     inkscape:window-y="156"
     inkscape:window-maximized="0"
     borderlayer="true"
     inkscape:snap-global="true">
    <inkscape:grid
       type="xygrid"
       id="grid2985"
       empspacing="5"
       visible="true"
       enabled="true"
       snapvisiblegridlinesonly="true" />
  </sodipodi:namedview>
  <metadata
     id="metadata7">
    <rdf:RDF>
      <cc:Work
         rdf:about="">
        <dc:format>image/svg+xml</dc:format>
        <dc:type
           rdf:resource="http://purl.org/dc/dcmitype/StillImage" />
        <dc:title></dc:title>
      </cc:Work>
    </rdf:RDF>
  </metadata>
  <g
     inkscape:label="Ebene 1"
     inkscape:groupmode="layer"
     id="layer1"
     transform="translate(0,-1028.3622)">
    <g
       id="g2997">
      <g
         id="g3010"
         transform="matrix(0.66666667,0,0,0.66666667,0,350.7874)">
        <g
           id="g3009"
           transform="matrix(1.3750009,0,0,1.3750009,1.8749973,-396.13677)">
          <path
             transform="matrix(0,1,-1,0,23.727275,1028.3622)"
             d="M 24,12 A 12,12 0 1 1 0,12 12,12 0 1 1 24,12 z"
             sodipodi:ry="12"
             sodipodi:rx="12"
             sodipodi:cy="12"
             sodipodi:cx="12"
             id="path2987"
             style="fill:url(#linearGradient3024);fill-opacity:1;stroke:none"
             sodipodi:type="arc" />
          <g
             transform="scale(1.0029693,0.99703949)"
             style="font-size:21.68913841px;font-style:normal;font-variant:normal;font-weight:bold;font-stretch:normal;line-height:125%;letter-spacing:0px;word-spacing:0px;fill:#ffffff;fill-opacity:1;stroke:none;font-family:Kinnari;-inkscape-font-specification:Kinnari Bold"
             id="text4148">
            <path
               d="m 13.18688,1037.1945 c -4e-6,0.3615 -0.137369,0.6796 -0.412094,0.9543 -0.274732,0.2747 -0.592839,0.4121 -0.954322,0.4121 -0.390407,0 -0.715743,-0.1301 -0.976011,-0.3904 -0.260271,-0.2747 -0.390406,-0.6001 -0.390404,-0.976 -2e-6,-0.4049 0.122903,-0.7374 0.368715,-0.9977 0.260267,-0.2747 0.592834,-0.4121 0.9977,-0.4121 0.361483,0 0.67959,0.1374 0.954322,0.4121 0.274725,0.2747 0.41209,0.6073 0.412094,0.9977 m 0.681026,13.9159 -4.3507152,0 0,-0.8242 c 0.6362142,-0.029 0.6982762,-0.1216 0.9151682,-0.2951 0.231349,-0.188 0.347025,-0.4772 0.347027,-0.8676 l 0,-5.2705 c -2e-6,-0.506 -0.04338,-0.8458 -0.130135,-1.0194 -0.0723,-0.1879 -0.238582,-0.2819 -0.49885,-0.2819 -0.2313522,0 -0.2070241,-0.029 -0.6408062,0.1012 l 0,-0.8459 3.2770122,-1.1485 0,8.5889 c -5e-6,0.4049 0.115671,0.694 0.347026,0.8676 0.231346,0.1735 0.08359,0.1423 0.734273,0.1712 l 0,0.8242"
               id="path3817"
               inkscape:connector-curvature="0"
               sodipodi:nodetypes="csscccsscccccsscsccccccc" />
          </g>
          <path
             style="fill:#000000;fill-opacity:1;stroke:none;opacity:0.4"
             d="M 12 1 C 5.9248637 1 1 5.9248637 1 12 C 1 18.075136 5.9248637 23 12 23 C 18.075136 23 23 18.075136 23 12 C 23 5.9248637 18.075136 1 12 1 z M 12 2 C 17.522848 2 22 6.477143 22 12 C 22 17.522857 17.522848 22 12 22 C 6.4771524 22 2 17.522857 2 12 C 2 6.477143 6.4771524 2 12 2 z "
             transform="matrix(1.0909084,0,0,1.0909084,-1.3636335,1027.2713)"
             id="path3026" />
          <path
             style="fill:url(#linearGradient3814);fill-opacity:1;stroke:none;opacity:0.3"
             d="M 12 2 C 6.4771525 2 2 6.4771525 2 12 C 2 17.522848 6.4771525 22 12 22 C 17.522848 22 22 17.522848 22 12 C 22 6.4771525 17.522848 2 12 2 z M 12 3 C 16.970563 3 21 7.0294372 21 12 C 21 16.970563 16.970563 21 12 21 C 7.0294373 21 3 16.970563 3 12 C 3 7.0294372 7.0294373 3 12 3 z "
             transform="matrix(1.0909084,0,0,1.0909084,-1.3636335,1027.2713)"
             id="path3036" />
        </g>
      </g>
    </g>
  </g>
  <style
     id="style1470"
     type="text/css">
	
@font-face{font-family:'TrebuchetMS-Bold';src:url(&quot;data:;base64,\
T1RUTwADACAAAQAQQ0ZGINnFGF0AAADAAAAFYUdQT1OwB73vAAAGJAAAAGZjbWFwAtwCtwAAADwA\
AACEAAAAAQAAAAMAAAAMAAQAeAAAABoAEAADAAoAIABDAFAAVQBhAGYAaQBsAG8AcgB0AHn//wAA\
ACAAQwBQAFUAYQBlAGkAbABuAHIAdAB5////4f+//7P/r/+k/6H/n/+d/5z/mv+Z/5UAAQAAAAAA\
AAAAAAAAAAAAAAAAAAAAAAAAAAAAAQAEAgABAQERVHJlYnVjaGV0TVMtQm9sZAABAQE7+BsMAPgU\
BPgcDBX7Yvy8HAgUHAfYBR6gAEiCgSX/i4seoABIgoEl/4uLDAf3Pw/3XBD3XhGRHAVbEgACAQE/\
TENvcHlyaWdodCAoYykgMTk5NiBNaWNyb3NvZnQgQ29ycG9yYXRpb24uIEFsbCByaWdodHMgcmVz\
ZXJ2ZWQuL0ZTVHlwZSA4IGRlZgAAAAABACQAMQA2AEIARgBHAEoATQBPAFAAUwBVAFoAAAAPAgAB\
ABsAHgCXAPEBPgHaAlICmwLlAwgDTQO+A+8ENwRvIPcU9/IV+ZT5lP2UB/0U9xQV+JT4lPyUBg78\
lg73DhwEghwFaxUg+2sFxVEuqPsVG/sOJ1glPR89JGT7FfsxGvsxr/sQ1C8eL9PrXfcNG/ce9wC8\
7tkf9w37ZgX7BSH7L1P7YRv7Yfszzvcb+wUf+wX3G1L3S/d9GvdtyvdJ9xL3Jh73JfcR9zXU91gb\
9zz3GmlG8B8O0vgu+K8V/K/7mBwFuAeS90Hxj6gb93v3PmhE9h/2RMD7A/srGvvk+1r7PPwgbmON\
kFoe+VAE/GkHhreuiaQb9wvhn7PCH8KypszkGvcs+w7X+4lwcImIch4O95X3KhwFuRX3mP51Bjyj\
S7taHlq7zXLfG+nUo7zAH7+7pc3fGvpw95j+hAf7K1n7CiY2HjYm+xtg+z0b+z77F7XeLx8u3l33\
DPcvGg5j+W/2FXRmZGxTdAhzUlB/Thv7BzCoxUkfScRq3fUa9xC67OjRHtHo9xiu9z8bqK6GgbMf\
9xI7yvszLTx7bEweVfdWBbTh8aD3Cxv3N/cMZkHXH9dAsfsh+2Ma+3kH+yOoMsRmHnZndHVygwiC\
cm6Hahtna5imbh9upniogaoIc/ghFZRga492G/tZKEr7FSvDW/cD9yrW1vcqHw65+tf4XxX9kQaQ\
NqhIwVwIXMHUc+Yb9wbiqcbGH+z7UwVEM/sXZ/tDG/s3+xW76ywfLOpb9xr3Pxr3Pb/3HPT0HvTz\
9xG/9yYb9y/3EV0u6R/pLrr7CvsjGmyEXX1NHv2I91AV+KIG9zF6NNn7MBv7IzM9+zFoHw78Cvlw\
HAUBFZ1UYZRuG1xjd2JqH2piellQGoKLg4yCHvdy+2L7bv31+4759fsw92L3MQaQ9xey9dTcCNzT\
6LP3BxvG1H5x4B8O/Jz33xwFzhWzrX1vqB+nbplpYxpjfWlvbx5ubml9YxtjaZmobx9up32tsxqz\
ma2oqB6np62Zsxv7FRz6MhX59vsd92H4Gv7DBw73RhwFvhX3jscFHPtMB/sYsjzach5CZElmLhv7\
BVLa9zEfDtn5zBb4/wfmes5otR61aFGgPBtmZIF2Yh9hdmpydGwI/Zr7jvrD90gHuScF28/vs/cZ\
G/cT8GU/1R/UPrAh+x0a/SUHDqfM+K4V9ze69xnq8h7y6fcQvvcvG/c39xJaKOUf5Si4+xv7Pxr7\
P137GzAmHiYv+xJZ+zMb+zf7Er7xMR8w8F73G/c9GveYFvuA4PsK9z7ZyarIuR64yKLj9wUa9302\
9wj7PT1NbE5dHl1OdDX7AhoO+5T5hvnaFaheWppWG1FYcVZeH15WdEs/Gvz2+476w/eOKQfa0eiy\
9wgb4M1+cbgfDvvT90H5+hX7EPdd9xD3bgb3jucF+8r3uvtd+7r8aQc+l1WjbB5ro7V7xxvHw5us\
vx/7egd3UTiBIBsgOanIUh9Sx27h9wMaDmX49ftAFXBEUlA0XAhcMyVz+wkb93EH91Xru+zLcO1W\
9xgf++P50wX3lwb3uP1495v5eAX3lwYO+PAU+v8VAAAAAAEAAAAKAB4ALAABREZMVAAIAAQAAAAA\
//8AAQAAAAFrZXJuAAgAAAABAAAAAQAEAAIAAAABAAgAAQAmAAQAAAACAA4AIAAEAAH/2wAF/6AA\
Bv+gAAv/oAABAAX/wAABAAIAAwAMAAA=&quot;)}
@font-face{font-family:'Arial-BoldMT';src:url(&quot;data:;base64,\
T1RUTwADACAAAQAQQ0ZGILKMO8AAAACwAAAMSUdQT1OvL77EAAAM/AAAAGxjbWFwAnkCWAAAADwA\
AAB0AAAAAQAAAAMAAAAMAAQAaAAAABYAEAADAAYAIABDAFAAUwBlAGkAbwByAHUAef//AAAAIABB\
AE8AUgBhAGcAawByAHQAef///+H/wf+2/7X/qP+n/6b/pP+j/6AAAQAAAAAAAAAAAAAAAAAAAAAA\
AAAAAAABAAQCAAEBAQ1BcmlhbC1Cb2xkTVQAAQEBOvgbAfgUBPgcDBX76/xDHAgAHAdNBR6gAEiC\
gSX/i4seoABIgoEl/4uLDAf3YA/3fxD3gRGTHAxBEgACAQFlckFyaWFsKFIpIFRyYWRlbWFyayBv\
ZiBUaGUgTW9ub3R5cGUgQ29ycG9yYXRpb24gcGxjIHJlZ2lzdGVyZWQgaW4gdGhlIFVTIFBhdCAm\
IFRNIE9mZi4gYW5kIGVsc2V3aGVyZS4vRlNUeXBlIDAgZGVmAAABAAEAACICADABADMBAEIEAEgC\
AEwEAFMAAFUBAFoAAAAAGgIAAQAbAB4ATQENAZsCOgKqAzsEBgTaBVIF0wZLBtEHmQf6CBcIRQhU\
CO4JTAnMCg0KawrICxzK95QWHAUA+pQc+wAH/nSrFfpUHATA/lQGDv4cDpEcBb8W+9YG+xT34QX8\
3gb7DfvhBfvOBvjPHAW6BffNBrX+ChX7Xvi0+1r8tAUOkfcqHAW6FfjeBvcI4oaCxB/Egb53uGy4\
bLBjqVgIqViaUUwaRnlMZlIeZlJYYExu5HHQX7tMCLtMo0I2Gkh8S2xMHmxMYFhWZlVlSXQ8glqG\
+wuH+1GKCPyHBve8HATGFfvn91YH9wfTjY6nH76Rs52oqAioqJmxuhq4f7ByqB5yp2WcWpEIjm42\
jfsfG/s+/NsV/Bz3pgf2zo6RqB+3k6+fp6oIpqqZtL8at4CwdqoedqpsoWOZCJliNJL7GxsOkfrT\
+K8V97MwX/s0QvsLJT4ZPST7FmT7MRv7V/s0zvcZ+xEf+xH3GUz3Sfd7GveIyvdS9xL3Gx73G/cS\
9zrO92Eb90f3JlYh9wQfzky9Maz7Cfu5RRh612fHVLcIt1RIoTwb+wEzZD1IH0c9afsS+0Ma+02s\
+xjOPB48zuFk9hvazqS9xB/EvbPapPYIDvcM5PloFfcpofcSuPAerNa5zsXGxMbKt9CoCLLm9Z73\
Cxv3bPdBSPsa9xYf9xX7Gsz7TvuDGvuBS/tN+xX7GR77GvsV+0BI+2sb+277Qc73GfsVH/sV9xlL\
90v3fRr3xZUV+zqx+xLYNh412Oxg9wob9wrstuDXH9bgsfcT9z4a9zxm9xFC3h7eQSm0+w4b+w4p\
YThAH0A3ZvsS+z0aDiD3KRYcBbr4bwf3SPcJhHzCH9910VvEQgjEQacs+wkaMXs/ak4eak5iW1lo\
WGhYc1eACH1EJYT7Ghv7Vfy9BhwEwgT8NPc2B/cJ2ZOash+ymqqjoqwIoayWsbYawHu3bK4ebK5j\
oFuUCJJoRI4gGw6R9yoWHAW6+QMH9zH3Bn5x0h/ScMNctkgItkigPjQa+wJrMEpEHkpDK177FXjL\
ZsBitV60XsM80vsG90f7shj79gb7avfTP/cGV9NvqRlvqG2gbJYIlmxZkEcbT/z4BvniBPdvBvci\
5JGXrh+ul6egn6gIn6iVsLcavH6zcaoecKlmnluTCI5zQ437DBv7ewYOINX4cRX3tKecKq9EwF4Z\
XsDSdOUb6tOftLwfu7OjusEaroGod6QedqNooFidaJc8oPsPqvszsvsDvEvECDHcXu33CBrWoNG2\
zB61zMi8260IrdrrnPcFG/dM9x9jOugf6Dq7IJD7G/u8fhh+1nDCYqwIrGFMmzgbNUh5aFofbHR7\
bWUaaJpuqHIesGzmavckafckafZo0GfQZsFaskwIskyePS4aN3Q8XEIeXEJJVDZoCGc2IHn7Exv7\
TfsjtuEoHyjgT/cRePc4CA774vf5+XYV+5O5qPK819G8GbzR86T3Hhv3Eel8bsgfyG23ZaReCKRd\
lzf7DhqI+9wFLpBGlF8elF6bXKRYCPuqBoSegqaAsIaciJaJkFtcWGhUdAh0VFF/TRv7ATWpxkwf\
TMZr1uYax5nBqLoeqLqzr7+kvqTWoOye9xek5qK+oAinB8F+snCiHqJwWZZBG1lkgXhvH293dGh6\
Wgj4DPt4FWd/Un09ej16WHtzewhmcXlqYxpkmmmobh5uqLF9uBu+u5ysuR+tpKGqlrAIkqOPuc4a\
DvcbFhwFuvet/KQH7uLxvPcLG/cV9lwu4B/gLbX7G/tDGvtJYPsgNSkeKTQiWvsPG05QmqpQH1Cp\
WLhgxgj7MAed+L4V+wKcOq5WHkC8y2bcG8nApsC3H7bAod73Bhr3DXXjX8EewF9TpkYbSFNxV14f\
XlZ1PCAaDvvi+sX5gBX7qVmCwna1aqcZp2pgmVYbRVNzW2IfYVp2OvsFGvsSoDK2Vx5XtcRx0hvA\
t5qqrR+tqaO/mdX3qFwYbvsTVCw6SghKOvsBa/sdG/sv+xC87S8fLu1d9xz3QRr3Q7n3HejtHuzo\
9xG89zIb9xXyb1TYH9dTwjas+wYIDvr1FvuZ9zAGYE5YXlBuCG1QT3xPG/sOI7zuNB807V/3HfdE\
GvdItfcd4Oke6OD2uvcVG/cL8Voo4h/4pPetB/2C/iQV+wWbOapYHkK4y2bcG8zCp8K4H7jCot33\
ARr3DnXjX8EewF9TpkYbSFRxVl4fXlZ0OyIaDvvi+Y735hX3rFxnJFI9PlYZVT0qcPsJG/tN+xzH\
9w0yH0XsaPcO9yca90S59x7n7x7u5/cIvfchG/cy9xFXI+Yf5iK3+zSH+2sI/VQGjTiiSrZdCFy2\
wXTMG7ewl6OpH6mjorKawAib97AVidx2yWO2CLVjWqBSG05YdV5jH2Ned0+MPggO9w1FFffVZJBm\
mHGefRl3prWBxBvUwpahsB+kmp2imKwIlKKPtsoa9y8H+wc3IVL7FBv7I/sFx/cNOB9K6mr3C/ci\
GvdGtvcc4eke6eD2uvcTG/cX9wFR+wfgH/cp95v+TQf7EYEtdk0edk1uWmZoZmhZb013CHdMPIEs\
G/tI+xSqyUAfQMhl2eoalIuXjJge94/5AxX7BaE5t1ceVrbBccsb0MWmwbofusCj2/Qa9wJ03V7A\
HsBeUaZGG0hTcVdgH19WdTsgGg74PxwFuhX8rwf15vcAwPcSG8zFf3O/H79zsmymZqVmnWGVXgiU\
XpBELBr9A/ut+MUH9wOG0oCpHoCpeaNwnQiccGmUYhtcYoB0Zh9mdHFpel4Iel2CRzIa/Kj7rRwF\
ugcO/hz3JxwEthX3mPet+5gH+60c+0oV+rr3rf66Bw774vcdFhwFuvet/Z4H9934CgX37gb7//wY\
+Bn9NgX7wwb7n/hx+xf7HQX76AcO/hz3JxYcBbr3rRz6RgcO9/D3Evq6FfeX+yUG9wXo9wLD9xQb\
z8Z9b70fvW+0YatSusS9tcGnCKfBxZnIG9nNe2zBH8Frs1ymTgieXpVBJhr9O/ut+PMH9IHPeKoe\
s3Fjn1UbZGZ/c2gfaHNyaHxdCHxcg0InGvyS+6342gfyhs6BqR6BqXyhdpoImnZukmcbYGR/dGgf\
aHRzaXxfCHxfg0IlGvyY+60HDvrtFvut+LIG9weF1X+tHn+seKVwngiecGqUZRtaYH5wZB9kcHFo\
fV8IfF+EOvsLGvx1+636uveZ+zAH9wzo9wjH9yEbycSAdb4fvnSyb6ZopWidZJZfCJVfkEw5Gg7d\
+LYV6KLmueIeueLMzuC5CLnf6aLzG/c19xdXI/If8iK++xj7Mxr7NVf7GSQiHiEj+xdW+zEbKi6h\
tzMfMrdIzF3gCF3gdPL3Dhr3tHwVIqQ6vVMeU73Jb9Qb1Mmnw70fvMOk3PYa83LbWsMew1lNp0Ib\
Qk1vU1kfWVNyOiIaDv04+DQW+636uveZ+ysGuNKzuq+iCKKutJa4G8vJeWjGHzT7iQWqXF+aYhtk\
aYB2cB9wdXVkfFIIe1KD+wr7SRoO/av5Dvq6Fft0+1T8QAc0jVmPfR6OfJR/mIIIgpiahp4bpbGU\
nbwfo/tuBW9KQX04G1helJxiH2KcbqF4pnimfa+EuQiFrIjN7hr4Y/sV93T3FfdnB/eu9zgF/AsH\
DvniFvczB2RSWV9MaghqTEh7RRtES5uqUh9SqmK3csQIcsR+2e8a+TT3rfx8B/spkC+Wah6VaZ5w\
pngId6augbUbu7aYprEfsaWlrJmyCJmykur3LBr4VPet/roHDvvimfq6Ffe/BveS/Yb3jPmGBfe3\
BvwL/pJI+01yTXRcdWoZdGpycW53bnZne2GACIBgW4VWG1VWkZZXH3L3cAWCt7OHrhvMvJ6yqh+q\
saO8nMYIDhwE4xQcBcEVAAAAAAEAAAAKAB4ALAABREZMVAAIAAQAAAAA//8AAQAAAAFrZXJuAAgA\
AAABAAAAAQAEAAIAAAABAAgAAQAqAAQAAAADABAAFgAgAAEAAv+0AAIAAf+0ABn/tAACAAH/2wAC\
/2gAAQADAAEAAgAG&quot;)}
	
	</style>
</svg>
